remix/Editor/sort-asc.svg

<svg viewBox="0 0 24 24" xmlns="http://www.w3.org/2000/svg"><path fill="none" d="M0 0h24v24H0Z"/><path d="M19 3l4 5h-3v12h-2V8h-3l4-5Zm-5 15v2H3v-2h11Zm0-7v2H3v-2h11Zm-2-7v2H3V4h9Z"/></svg>

<svg viewBox="0 0 24 24" fill="currentColor" xmlns="http://www.w3.org/2000/svg"><path d="M19 3L23 8H20V20H18V8H15L19 3ZM14 18V20H3V18H14ZM14 11V13H3V11H14ZM12 4V6H3V4H12Z"/></svg>
